src/icons/svg/ticket.svg

<svg width="24px" height="24px" viewBox="0 0 24 24" version="1.1" xmlns="http://www.w3.org/2000/svg">
    <rect id="矩形备份-2" fill="#D8D8D8" opacity="0" x="0" y="0" width="24" height="24"></rect>
    <rect id="矩形备份-6" fill="#F9F9F9" opacity="0" x="1" y="1" width="22" height="22"></rect>
    <path d="M4.36472256,1.50887178 L5.14347785,1.522465 C5.59775176,1.53039438 5.91652011,1.86461042 5.90852442,2.32443774 C5.90052873,2.78426506 5.57033654,3.10702761 5.11606315,3.09906787 L4.33730878,3.08542259 C3.4936582,3.0706402 2.76723538,3.78071782 2.75238625,4.63468284 L2.49309754,19.5462259 C2.47824841,20.4001909 3.17954193,21.1352849 4.02319251,21.1500673 L19.5333838,21.4218358 C20.3770344,21.4366182 21.1034572,20.7265405 21.1183064,19.8725755 L21.3775951,4.96103243 C21.3924442,4.10706742 20.7560468,3.37311056 19.8475001,3.35719107 L19.0687457,3.34354579 C18.6144723,3.33558604 18.2957025,3.00145243 18.3036982,2.5416251 C18.3116939,2.08179779 18.6418861,1.75903523 19.0961595,1.76699498 L19.8749139,1.78064026 C21.6271112,1.81134214 22.9648021,3.28039295 23,4.9894601 L22.7407113,19.9010032 C22.7097527,21.6746208 21.2581693,23.0289757 19.5708662,22.9995237 L4.06067492,22.7277552 C2.30847758,22.6970533 0.970786723,21.2280025 1.00048499,19.5200725 L1.25977369,4.60852939 C1.28958569,2.90060133 2.67741945,1.47941979 4.36472256,1.50887178 Z M6.49227944,15.7476269 L17.345473,15.9377958 C17.733087,15.9445875 18.0493212,16.3415141 18.0424917,16.73278 C18.0345238,17.1892569 17.7058729,17.509653 17.2536565,17.5017293 L6.46506537,17.3126923 C6.01284898,17.3047686 5.69547647,16.973053 5.7034443,16.5165761 C5.71141213,16.0600992 6.04006305,15.7397032 6.49227944,15.7476269 Z M6.57278773,11.1176417 L17.4259812,11.3078106 C17.8135953,11.3146024 18.1309678,11.646318 18.123,12.1027949 C18.1150321,12.5592717 17.7863812,12.8796678 17.3341648,12.8717441 L6.54557366,12.6827071 C6.09335727,12.6747834 5.77598476,12.3430678 5.78395259,11.8865909 C5.79192042,11.4301141 6.12057134,11.109718 6.57278773,11.1176417 Z M6.65442994,6.42244548 L17.4430211,6.61148242 C17.8952375,6.61940612 18.21261,6.95112177 18.2046422,7.40759866 C18.1966743,7.86407554 17.8680234,8.18447156 17.415807,8.17654786 L6.62721587,7.98751092 C6.23960182,7.98071918 5.85762697,7.64787162 5.8655948,7.19139474 C5.87356263,6.73491786 6.20221355,6.41452178 6.65442994,6.42244548 Z M9.91519394,1.00018251 L13.7913345,1.06809997 C14.4373579,1.07941955 14.9451487,1.61016444 14.9337661,2.26227427 C14.9223835,2.91438409 14.3965368,3.42701766 13.7505134,3.41569808 L9.87437283,3.34778062 C9.22834944,3.33646104 8.72055863,2.80571616 8.73194124,2.15360633 C8.74332386,1.5014965 9.26917055,0.988862936 9.91519394,1.00018251 Z"
          id="形状结合" fill="#000000" fill-rule="nonzero"></path>
</svg>

<svg width="24" height="24" xmlns="http://www.w3.org/2000/svg"><path d="M4.365 1.509l.778.013c.455.008.774.343.766.802-.008.46-.339.783-.793.775l-.779-.014c-.843-.014-1.57.696-1.585 1.55l-.259 14.911c-.015.854.687 1.59 1.53 1.604l15.51.272c.844.015 1.57-.695 1.585-1.55l.26-14.911c.014-.854-.622-1.588-1.53-1.604l-.78-.013c-.454-.008-.772-.343-.764-.802.008-.46.338-.783.792-.775l.779.014c1.752.03 3.09 1.5 3.125 3.208l-.26 14.912c-.03 1.774-1.482 3.128-3.17 3.099l-15.51-.272c-1.752-.03-3.09-1.5-3.06-3.208L1.26 4.61c.03-1.708 1.417-3.13 3.105-3.1zm2.127 14.239l10.853.19c.388.007.704.404.697.795-.007.456-.336.777-.788.769l-10.789-.19c-.452-.007-.77-.339-.762-.795.008-.457.337-.777.79-.77zm.08-4.63l10.854.19c.388.007.705.338.697.795-.008.456-.337.777-.789.769l-10.788-.19c-.453-.007-.77-.339-.762-.795.008-.457.337-.777.789-.77zm.082-4.696l10.789.19c.452.007.77.34.762.796-.008.456-.337.776-.79.769l-10.788-.19a.79.79 0 0 1-.761-.796c.008-.456.336-.776.788-.769zM9.915 1l3.876.068a1.164 1.164 0 0 1 1.143 1.194 1.164 1.164 0 0 1-1.183 1.154l-3.877-.068a1.164 1.164 0 0 1-1.142-1.194A1.164 1.164 0 0 1 9.915 1z" fill="currentColor"/></svg>
